X:0
T:The Well Buked Ballap
S:James Thomson's MS for the treble recorder, 1702
B:David Johnson, 21 Scots Tunes for the Treble Recorder
N:ornamentation omitted, see Johnson's edition
M:C
L:1/16
Q:1/4=120
K:GMix
de|f3g  f2c2 A4   c2ef|g3a  g3d B4 d2de|
   f2f2 Afed e2e2 cdec|d2de d3G B4 d2 :|
fe|defg f3c  A4   c2ef|efga g3d B4 d2de|
   defg f2ed cdef e2dc|Bcde d3G B4 d2 :|


9. Other Key Changes
== =================

Art music has heavily influenced most forms of popular music, but has had
little impact on Scottish traditional idiom.  One feature common to almost
all British popular song since 1800, and almost totally absent from Scottish
music, is changes of tonal centre while keeping in the same mode ("change of
key" in more usual terminology).  Pieces that do this, and have managed to
enter the Scottish repertoire, still sound decidedly different from the main
body of tunes composed in the modal system.  This sentimental song from the
late 1790s modulates to A (in art-music theory, the "dominant") in bars 5
and 6:

